material/.icons/material/printer-pos.svg

<svg xmlns="http://www.w3.org/2000/svg" viewBox="0 0 24 24"><path d="M18 10H6a2 2 0 00-2 2v7h16v-7a2 2 0 00-2-2m0 4h-4v-2h4m-1-3H7V4h10z"/></svg>

<?xml version="1.0" encoding="UTF-8"?><!DOCTYPE svg PUBLIC "-//W3C//DTD SVG 1.1//EN" "http://www.w3.org/Graphics/SVG/1.1/DTD/svg11.dtd"><svg xmlns="http://www.w3.org/2000/svg" xmlns:xlink="http://www.w3.org/1999/xlink" version="1.1" id="mdi-printer-pos" width="24" height="24" viewBox="0 0 24 24"><path d="M18 10H6A2 2 0 0 0 4 12V19H20V12A2 2 0 0 0 18 10M18 14H14V12H18M17 9H7V4H17Z" /></svg>
